remix/Business/award-line.svg

<svg viewBox="0 0 24 24" fill="currentColor" xmlns="http://www.w3.org/2000/svg"><path d="M17 15.2454V22.1169C17 22.393 16.7761 22.617 16.5 22.617C16.4094 22.617 16.3205 22.5923 16.2428 22.5457L12 20L7.75725 22.5457C7.52046 22.6877 7.21333 22.6109 7.07125 22.3742C7.02463 22.2964 7 22.2075 7 22.1169V15.2454C5.17107 13.7793 4 11.5264 4 9C4 4.58172 7.58172 1 12 1C16.4183 1 20 4.58172 20 9C20 11.5264 18.8289 13.7793 17 15.2454ZM9 16.4185V19.4676L12 17.6676L15 19.4676V16.4185C14.0736 16.7935 13.0609 17 12 17C10.9391 17 9.92643 16.7935 9 16.4185ZM12 15C15.3137 15 18 12.3137 18 9C18 5.68629 15.3137 3 12 3C8.68629 3 6 5.68629 6 9C6 12.3137 8.68629 15 12 15Z"/></svg>

<svg viewBox="0 0 24 24" xmlns="http://www.w3.org/2000/svg"><path fill="none" d="M0 0h24v24H0Z"/><path d="M17 15.245v6.87 0c0 .27-.23.5-.5.5 -.1 0-.18-.03-.26-.08l-4.25-2.55 -4.243 2.54h0c-.24.14-.55.06-.69-.18 -.05-.08-.08-.17-.08-.26v-6.87 0c-3.45-2.77-4.01-7.8-1.25-11.25s7.79-4.01 11.24-1.25c3.44 2.76 4 7.79 1.24 11.24 -.37.45-.79.87-1.25 1.24Zm-8 1.173v3.05l3-1.8 3 1.8v-3.05 0c-.96.38-1.98.58-3 .58v0c-1.03 0-2.05-.2-3-.59Zm3-1.42v0c3.31 0 6-2.69 6-6 0-3.32-2.69-6-6-6v0c-3.32 0-6 2.68-6 6 0 3.31 2.68 6 6 6Z"/></svg>
